nameplates/infernus.svg

<svg width="1561" height="376" viewBox="0 0 1561 376" fill="none" xmlns="http://www.w3.org/2000/svg">
<g clip-path="url(#clip0_22600_291)">
<path d="M67.7596 375.844C45.131 373.947 22.6287 371.671 0 369.141C2.27551 362.439 4.55102 355.863 6.95295 349.16V21.8778C4.55102 14.6695 2.27551 7.33477 0 0C22.6287 2.52923 45.131 4.80554 67.7596 6.70246C65.4841 13.5314 63.2086 20.3603 60.8067 27.3157C60.8067 136.452 60.8067 245.462 60.8067 354.598C63.0822 361.68 65.3577 368.762 67.7596 375.97V375.844Z" fill="white"/>
<path d="M169.146 361.933C146.518 360.795 124.015 359.53 101.387 357.886C103.662 351.184 105.938 344.355 108.34 337.652C108.34 242.3 108.34 146.822 108.34 51.4699C106.064 44.2616 103.789 37.0533 101.387 29.845C121.613 31.3625 141.967 32.5007 162.193 33.5124C188.614 101.422 215.162 169.079 241.583 236.23V57.6665C239.308 50.5847 237.032 43.5028 234.63 36.2945C257.512 36.9268 280.393 37.3062 303.275 37.4327C300.999 44.5145 298.724 51.4699 296.322 58.5517C296.322 153.904 296.322 249.382 296.322 344.734C298.597 351.69 300.873 358.645 303.275 365.474C282.669 365.347 262.189 364.968 241.583 364.462C215.162 297.311 188.614 229.907 162.193 162.124V340.814C164.469 347.896 166.744 354.851 169.146 361.807V361.933Z" fill="white"/>
<path d="M336.902 37.5591C391.514 37.5591 446.253 36.2945 500.865 34.3976C504.152 54.3785 507.439 74.4859 510.852 94.4668C503.393 92.5699 495.935 90.673 488.476 88.7761C460.411 89.6613 432.347 90.4201 404.282 90.9259C402.133 93.0757 399.984 95.352 397.835 97.5019V166.929C399.984 169.079 402.133 171.229 404.282 173.252C413.511 173.126 422.739 172.873 431.841 172.747C438.794 170.344 445.621 167.814 452.574 165.285V233.954C445.621 231.804 438.794 229.654 431.841 227.504C422.613 227.757 413.384 227.884 404.282 228.01C402.133 230.034 399.984 232.057 397.835 234.207V343.849C400.11 350.804 402.386 357.886 404.788 364.842C382.159 365.221 359.657 365.474 337.028 365.474C339.304 358.392 341.579 351.31 343.981 344.355V58.2988C341.706 51.3434 339.43 44.5145 337.028 37.5591H336.902Z" fill="white"/>
<path d="M533.734 361.174C536.009 354.092 538.285 346.884 540.687 339.802V53.6197C538.411 46.7908 536.136 39.9619 533.734 33.133C588.346 30.9831 643.085 28.201 697.697 25.1659C700.984 45.1468 704.27 65.1277 707.557 84.9822C700.099 83.2117 692.64 81.4413 685.181 79.7973C657.117 81.3148 629.052 82.8324 600.988 84.097C598.839 86.3733 596.689 88.6496 594.54 90.9259V158.709C596.689 160.733 598.839 162.883 600.988 164.906C610.216 164.527 619.445 164.021 628.547 163.515C635.626 160.859 642.579 158.203 649.658 155.548C649.658 178.437 649.658 201.327 649.658 224.216C642.579 222.319 635.626 220.296 628.547 218.399C619.318 218.905 610.09 219.284 600.988 219.79C598.839 221.94 596.689 223.963 594.54 226.113V296.932C596.689 298.955 598.839 301.105 600.988 303.128C629.052 301.737 657.117 300.346 685.181 298.829C692.64 296.299 700.099 293.644 707.557 291.115C704.27 311.854 700.984 332.594 697.697 353.334C643.085 356.369 588.346 359.151 533.734 361.301V361.174Z" fill="white"/>
<path d="M730.439 351.437C732.714 344.355 734.99 337.399 737.392 330.318V44.1351C735.116 37.1797 732.841 30.3508 730.439 23.3954C778.224 20.7397 825.884 17.9576 873.669 15.3019C882.898 23.7748 892.126 32.1213 901.228 40.5942V189.945C892 199.683 882.771 209.294 873.669 219.031C881.634 252.67 889.472 286.309 897.436 320.074C900.343 327.283 903.251 334.491 906.032 341.573C883.404 342.711 860.901 343.975 838.273 345.24C839.916 338.411 841.433 331.582 843.077 324.753C835.365 292.253 827.527 259.752 819.816 227.251C818.425 225.607 816.908 223.963 815.518 222.319C809.576 222.699 803.761 222.952 797.819 223.331C795.67 225.607 793.521 227.884 791.372 230.16V327.283C793.647 334.111 795.923 340.814 798.325 347.643C775.696 348.907 753.194 350.172 730.565 351.437H730.439ZM840.042 166.55C842.192 164.4 844.341 162.25 846.49 160.1C846.49 132.785 846.49 105.469 846.49 78.1533C844.341 76.2563 842.192 74.3594 840.042 72.4625C826.01 73.2213 811.851 74.1065 797.819 74.8653C795.67 77.0151 793.521 79.165 791.372 81.3148V163.262C793.521 165.159 795.67 167.056 797.819 168.953C811.851 168.194 826.01 167.309 840.042 166.55Z" fill="white"/>
<path d="M1006.15 336.767C983.526 337.779 961.024 338.79 938.395 339.929C940.671 332.847 942.946 325.891 945.348 318.81C945.348 223.458 945.348 127.979 945.348 32.6271C943.072 25.6717 940.797 18.7163 938.395 11.7609C958.622 10.7492 978.975 9.73753 999.202 8.97876C1025.62 74.4858 1052.17 139.993 1078.59 205.753C1078.59 146.19 1078.59 86.6262 1078.59 27.0628C1076.32 20.1074 1074.04 13.152 1071.64 6.19661C1094.52 5.43784 1117.4 4.80553 1140.28 4.29968C1138.01 11.3815 1135.73 18.4634 1133.33 25.5452V311.728C1135.61 318.557 1137.88 325.386 1140.28 332.341C1119.68 332.72 1099.2 333.353 1078.59 333.985C1052.17 268.351 1025.62 202.971 999.202 137.59V316.28C1001.48 323.109 1003.75 329.938 1006.15 336.641V336.767Z" fill="white"/>
<path d="M1344.83 26.4304C1344.83 119.633 1344.83 212.835 1344.83 306.163C1335.6 314.889 1326.37 323.742 1317.27 332.594C1280.73 331.709 1244.2 331.456 1207.66 331.709C1198.69 322.73 1189.84 313.751 1180.86 304.772V24.9129C1178.59 17.831 1176.31 10.8757 1173.91 3.79381C1196.54 3.54089 1219.04 3.41443 1241.67 3.41443C1239.39 10.4963 1237.12 17.4517 1234.72 24.5335V270.501C1236.87 272.525 1239.02 274.548 1241.16 276.571C1255.2 276.571 1269.36 276.698 1283.39 276.951C1285.54 274.927 1287.69 273.03 1289.83 271.007V25.0394C1287.56 17.9575 1285.28 10.8757 1282.88 3.79381C1305.76 4.1732 1328.65 4.67904 1351.53 5.43781C1349.25 12.3932 1346.98 19.3486 1344.57 26.304L1344.83 26.4304Z" fill="white"/>
<path d="M1561 124.185C1538.12 121.53 1515.24 119.38 1492.36 117.356C1494.5 110.654 1496.65 103.951 1498.8 97.2489C1498.8 90.0406 1498.8 82.8323 1498.8 75.624C1496.65 73.4741 1494.5 71.1978 1492.36 69.048C1478.45 67.9098 1464.42 66.7717 1450.51 65.8864C1448.36 67.7834 1446.21 69.6803 1444.06 71.4508V140.499C1446.21 142.775 1448.36 145.051 1450.51 147.454C1475.79 149.225 1501.08 151.248 1526.49 153.777C1535.59 163.768 1544.57 173.758 1553.67 183.749V320.58C1544.57 328.674 1535.59 336.767 1526.49 344.987C1490.08 341.446 1453.67 338.664 1417.39 336.514C1407.91 326.903 1398.43 317.418 1388.95 307.807C1388.95 289.344 1388.95 271.007 1388.95 252.544C1386.92 245.588 1384.9 238.506 1382.88 231.551C1405.63 232.563 1428.26 233.827 1451.02 235.345C1448.74 242.047 1446.47 248.876 1444.06 255.579V277.204C1446.21 279.354 1448.36 281.503 1450.51 283.653C1464.42 284.665 1478.45 285.677 1492.36 286.815C1494.5 285.044 1496.65 283.147 1498.8 281.377C1498.8 258.361 1498.8 235.345 1498.8 212.329C1496.65 209.926 1494.5 207.65 1492.36 205.247C1467.32 203.097 1442.29 201.327 1417.26 199.936C1407.78 190.198 1398.3 180.461 1388.82 170.85C1388.82 125.07 1388.82 79.2914 1388.82 33.6387C1398.3 25.1658 1407.78 16.6929 1417.26 8.34644C1453.67 10.3698 1490.08 13.152 1526.36 16.8194C1535.46 26.6834 1544.44 36.5474 1553.54 46.4114V102.56C1555.94 109.769 1558.47 116.977 1560.87 124.059L1561 124.185Z" fill="white"/>
</g>
<defs>
<clipPath id="clip0_22600_291">
<rect width="1561" height="375.844" fill="white"/>
</clipPath>
</defs>
</svg>

<svg xmlns="http://www.w3.org/2000/svg" width="1561" height="376" fill="none"><g fill="#fff" clip-path="url(#a)"><path d="M67.76 375.844c-22.629-1.897-45.131-4.173-67.76-6.703a1253 1253 0 0 1 6.953-19.981V21.878C4.551 14.669 2.276 7.335 0 0c22.629 2.53 45.131 4.806 67.76 6.702-2.276 6.83-4.551 13.658-6.953 20.614v327.282c2.275 7.082 4.55 14.164 6.953 21.372zm101.386-13.911c-22.628-1.138-45.131-2.403-67.759-4.047 2.275-6.702 4.551-13.531 6.953-20.234V51.47c-2.276-7.208-4.551-14.417-6.953-21.625 20.226 1.518 40.58 2.656 60.806 3.667 26.421 67.91 52.969 135.567 79.39 202.718V57.667c-2.275-7.082-4.551-14.164-6.953-21.373q34.322.949 68.645 1.139a1377 1377 0 0 1-6.953 21.119v286.182c2.275 6.956 4.551 13.911 6.953 20.74-20.606-.127-41.086-.506-61.692-1.012-26.421-67.151-52.969-134.555-79.39-202.338v178.69c2.276 7.082 4.551 14.037 6.953 20.993zM336.902 37.56c54.612 0 109.351-1.266 163.963-3.162 3.287 19.98 6.574 40.088 9.987 60.069l-22.376-5.69c-28.065.884-56.129 1.643-84.194 2.149-2.149 2.15-4.298 4.426-6.447 6.576v69.427c2.149 2.15 4.298 4.3 6.447 6.323 9.229-.126 18.457-.379 27.559-.505 6.953-2.403 13.78-4.933 20.733-7.462v68.669c-6.953-2.15-13.78-4.3-20.733-6.45-9.228.253-18.457.38-27.559.506-2.149 2.024-4.298 4.047-6.447 6.197v109.642c2.275 6.955 4.551 14.037 6.953 20.993-22.629.379-45.131.632-67.76.632 2.276-7.082 4.551-14.164 6.953-21.119V58.299a1325 1325 0 0 0-6.953-20.74zm196.832 323.614c2.275-7.082 4.551-14.29 6.953-21.372V53.62c-2.276-6.83-4.551-13.658-6.953-20.487 54.612-2.15 109.351-4.932 163.963-7.967 3.287 19.98 6.573 39.962 9.86 59.816-7.458-1.77-14.917-3.54-22.376-5.185-28.064 1.518-56.129 3.035-84.193 4.3l-6.448 6.829v67.783c2.149 2.024 4.299 4.174 6.448 6.197 9.228-.379 18.457-.885 27.559-1.391 7.079-2.656 14.032-5.312 21.111-7.967v68.668c-7.079-1.897-14.032-3.92-21.111-5.817-9.229.506-18.457.885-27.559 1.391-2.149 2.15-4.299 4.173-6.448 6.323v70.819c2.149 2.023 4.299 4.173 6.448 6.196 28.064-1.391 56.129-2.782 84.193-4.299 7.459-2.53 14.918-5.185 22.376-7.714l-9.86 62.219c-54.612 3.035-109.351 5.817-163.963 7.967zm196.705-9.737a1363 1363 0 0 1 6.953-21.119V44.135a1335 1335 0 0 0-6.953-20.74c47.785-2.655 95.445-5.437 143.23-8.093 9.229 8.473 18.457 16.82 27.559 25.292v149.351c-9.228 9.738-18.457 19.349-27.559 29.086 7.965 33.639 15.803 67.278 23.767 101.043 2.907 7.209 5.815 14.417 8.596 21.499-22.628 1.138-45.131 2.402-67.759 3.667 1.643-6.829 3.16-13.658 4.804-20.487-7.712-32.5-15.55-65.001-23.261-97.502-1.391-1.644-2.908-3.288-4.298-4.932-5.942.38-11.757.633-17.699 1.012l-6.447 6.829v97.123a1287 1287 0 0 0 6.953 20.36c-22.629 1.264-45.131 2.529-67.76 3.794zM840.042 166.55l6.448-6.45V78.153l-6.448-5.69c-14.032.758-28.191 1.644-42.223 2.402l-6.447 6.45v81.947l6.447 5.691c14.032-.759 28.191-1.644 42.223-2.403m166.108 170.217c-22.624 1.012-45.126 2.023-67.755 3.162a1373 1373 0 0 1 6.953-21.119V32.627c-2.276-6.955-4.551-13.91-6.953-20.866 20.227-1.012 40.58-2.023 60.807-2.782 26.418 65.507 52.968 131.014 79.388 196.774V27.063c-2.27-6.956-4.55-13.911-6.95-20.866a6217 6217 0 0 1 68.64-1.897c-2.27 7.082-4.55 14.163-6.95 21.245v286.183c2.28 6.829 4.55 13.658 6.95 20.613-20.6.379-41.08 1.012-61.69 1.644-26.42-65.634-52.97-131.014-79.388-196.395v178.69c2.278 6.829 4.548 13.658 6.948 20.361zM1344.83 26.43v279.733a2687 2687 0 0 0-27.56 26.431c-36.54-.885-73.07-1.138-109.61-.885-8.97-8.979-17.82-17.958-26.8-26.937V24.912c-2.27-7.081-4.55-14.036-6.95-21.118 22.63-.253 45.13-.38 67.76-.38-2.28 7.082-4.55 14.038-6.95 21.12V270.5c2.15 2.024 4.3 4.047 6.44 6.07 14.04 0 28.2.127 42.23.38 2.15-2.024 4.3-3.921 6.44-5.944V25.039c-2.27-7.082-4.55-14.163-6.95-21.245 22.88.38 45.77.885 68.65 1.644-2.28 6.955-4.55 13.91-6.96 20.866zM1561 124.185c-22.88-2.655-45.76-4.805-68.64-6.829 2.14-6.702 4.29-13.405 6.44-20.107V75.624c-2.15-2.15-4.3-4.426-6.44-6.576-13.91-1.138-27.94-2.276-41.85-3.162-2.15 1.897-4.3 3.794-6.45 5.565v69.048c2.15 2.276 4.3 4.552 6.45 6.955 25.28 1.771 50.57 3.794 75.98 6.323 9.1 9.991 18.08 19.981 27.18 29.972V320.58c-9.1 8.094-18.08 16.187-27.18 24.407-36.41-3.541-72.82-6.323-109.1-8.473-9.48-9.611-18.96-19.096-28.44-28.707v-55.263c-2.03-6.956-4.05-14.038-6.07-20.993 22.75 1.012 45.38 2.276 68.14 3.794-2.28 6.702-4.55 13.531-6.96 20.234v21.625l6.45 6.449c13.91 1.012 27.94 2.024 41.85 3.162 2.14-1.771 4.29-3.668 6.44-5.438v-69.048c-2.15-2.403-4.3-4.679-6.44-7.082a2498 2498 0 0 0-75.1-5.311c-9.48-9.738-18.96-19.475-28.44-29.086V33.639c9.48-8.473 18.96-16.946 28.44-25.293 36.41 2.024 72.82 4.806 109.1 8.473 9.1 9.864 18.08 19.728 27.18 29.592v56.149c2.4 7.209 4.93 14.417 7.33 21.499z"/></g><defs><clipPath id="a"><path fill="#fff" d="M0 0h1561v375.844H0z"/></clipPath></defs></svg>
